svg/fluentui-system-icons/ic_fluent_calendar_cancel_24_filled.svg

<svg width="24" height="24" viewBox="0 0 24 24" fill="none" xmlns="http://www.w3.org/2000/svg">
<path d="M17.5 12C20.5376 12 23 14.4624 23 17.5C23 20.5376 20.5376 23 17.5 23C14.4624 23 12 20.5376 12 17.5C12 14.4624 14.4624 12 17.5 12ZM15.0238 15.0241C14.8285 15.2194 14.8285 15.536 15.0238 15.7312L16.793 17.501L15.0264 19.2675C14.8311 19.4628 14.8311 19.7793 15.0264 19.9746C15.2217 20.1699 15.5382 20.1699 15.7335 19.9746L17.5 18.208L19.2694 19.9768C19.4647 20.1721 19.7812 20.1721 19.9765 19.9768C20.1718 19.7816 20.1718 19.465 19.9765 19.2697L18.208 17.501L19.9793 15.7313C20.1745 15.536 20.1745 15.2194 19.9793 15.0242C19.784 14.8289 19.4674 14.8289 19.2722 15.0242L17.501 16.794L15.7309 15.0241C15.5356 14.8289 15.2191 14.8289 15.0238 15.0241ZM21 8.5L21.0012 12.0226C19.9907 11.3753 18.7892 11 17.5 11C13.9101 11 11 13.9101 11 17.5C11 18.7892 11.3753 19.9907 12.0226 21.0012L6.25 21C4.45507 21 3 19.5449 3 17.75V8.5H21ZM17.75 3C19.5449 3 21 4.45507 21 6.25V7H3V6.25C3 4.45507 4.45507 3 6.25 3H17.75Z" fill="#212121"/>
</svg>

<svg xmlns="http://www.w3.org/2000/svg" width="24" height="24"><path d="M17.5 12a5.5 5.5 0 1 1 0 11 5.5 5.5 0 0 1 0-11Zm-2.476 3.024a.5.5 0 0 0 0 .707l1.769 1.77-1.767 1.766a.5.5 0 1 0 .707.708l1.767-1.767 1.77 1.769a.5.5 0 1 0 .707-.707l-1.769-1.77 1.771-1.77a.5.5 0 0 0-.707-.707l-1.771 1.77-1.77-1.77a.5.5 0 0 0-.707 0ZM21 8.5l.001 3.523a6.5 6.5 0 0 0-8.979 8.979L6.25 21A3.25 3.25 0 0 1 3 17.75V8.5h18ZM17.75 3A3.25 3.25 0 0 1 21 6.25V7H3v-.75A3.25 3.25 0 0 1 6.25 3h11.5Z"/></svg>
